!!!Melodie: eigene
!!!Typ: Lied
**kern	**silbe	**silbe	**silbe	**silbe	**silbe	**silbe	**silbe	**silbe
*clefG2	*lang:DE	*lang:DE	*lang:DE	*lang:DE	*lang:DE	*lang:DE	*lang:DE	*lang:DE
*k[b-]	*	*	*	*	*	*	*	*
*M4/4	*	*	*	*	*	*	*	*
*met(c)	*	*	*	*	*	*	*	*
4g	Nun	Nicht	Der	Er	Sein	Der	Dein'	Lob
4g	komm	von	Jung#	ging	Lauf	du	Krip#	sei
4f	der	Manns#	#frau'n	aus	kam	bist	#pe	Gott
4b-	Hei#	#blut,	Leib	der	vom	dem	glänzt	dem
=2	=2	=	=	=	=	=	=	=
8aL	#den	noch	schwang#	Kam#	Va#	Va#	hell	Va#
8gJ	|	|	|	|	|	|	|	|
4a	Hei#	von	#er	#mer	#ter	#ter	und	#ter
2g	#land	Fleisch,	ward,	sein,	her,	gleich,	klar,	Tun,
=3	=3	=	=	=	=	=	=	=
4g	der	al#	doch	dem	und	führ'	die	Lob
4b-	Jung#	#lein	bleibt	kö#	kehrt'	hi#	Nacht	sei
4.cc	#frau#	von	Keusch#	#nig#	wie#	#naus	gibt	dem
8b-	#en	dem	#heit	#lich	#der	den	ein'	Gott
=4	=4	=	=	=	=	=	=	=
4cc	Kind	Heil#	rein	Saal	zum	Sieg	neu'	sei’m
4dd	er#	#'gen	be#	so	Va#	im	Licht	ein'
2b-	#kannt	Geist	#wahrt,	rein,	#ter,	Fleisch,	dar,	Sohn,
=5	=5	=	=	=	=	=	=	=
4b-	daß	ist	leucht'	Gott	fuhr	dass	dun#	Lob
4cc	sich	Gott's	her#	von	hi#	dein	#kel	sei
4dd	wun#	Wort	#für	Art	#nun#	ew'g	muss	dem
4b-	#dert	wor#	manch'	und	#ter	Got#	nicht	Gott
=6	=6	=	=	=	=	=	=	=
4cc	al#	#den	Tu#	Mensch	zu	#tes#	kom#	dem
8Lb-	#le	ein	#gend	ein	der	#ge#	#men	Heil'g
8Ja	|	|	|	|	|	|	|	|
2g	Welt,	Mensch,	schon	Held,	Höll'	#walt	drein,	Geist
=7	=7	=	=	=	=	=	=	=
4g	Gott	und	Gott	sein'	und	in	der	im#
4g	solch’	blüht	da	Weg	wie#	uns	Glaub'	#mer
4f	Ge#	ein	war	er	#der	das	bleibt	und
4b-	#burt	Frucht	in	zu	zu	krank'	im#	in
=8	=8	=	=	=	=	=	=	=
8La	ihm	Wei#	sei#	lau#	Go#	Fleisch	#mer	E#
8Jg	|	|	|	|	|	|	|	|
4a	be#	#bes#	#nem	#fen	#tes	er#	im	#wig#
0g	#stellt.	#fleisch.	Thron.	eilt.	Stuhl.	#halt'.	Schein.	#keit!
==	==	==	==	==	==	==	==	==
*-	*-	*-	*-	*-	*-	*-	*-	*-
